dist/img/viber.svg

<svg width="28" height="29" viewBox="0 0 28 29" fill="none" xmlns="http://www.w3.org/2000/svg">
<path d="M24.7839 3.24431C22.4915 0.99691 18.7854 -0.0920389 13.7666 0.00608528C8.7061 0.105615 5.32337 0.993843 3.12107 2.80148C0.991719 4.54906 0 7.10629 0 10.8492V14.6691C0 19.0878 2.36776 23.9456 6.8931 24.6806C7.41553 24.7661 7.90769 24.4109 7.99252 23.8883C8.07736 23.366 7.72268 22.8738 7.20025 22.7889C3.76833 22.2315 1.91649 18.1893 1.91649 14.6691V10.8492C1.91649 5.48226 3.90517 2.11678 13.8042 1.92206C18.292 1.83314 21.5311 2.73913 23.442 4.61268C24.9311 6.07292 25.655 8.11283 25.655 10.8492V14.6691C25.655 20.4536 23.0587 23.005 16.3995 23.7562H11.6775C11.4234 23.7562 11.1796 23.8572 11 24.0369L7.67285 27.3641C7.29863 27.7383 7.29863 28.3451 7.67285 28.7193C7.8599 28.9063 8.10521 29 8.3504 29C8.59558 29 8.84089 28.9065 9.02794 28.7193L12.0745 25.6727H16.4531C16.4883 25.6727 16.5237 25.6708 16.5588 25.6668C20.3698 25.2436 22.9796 24.2517 24.7715 22.5453C26.6557 20.7509 27.5716 18.1747 27.5716 14.669V10.8492C27.5716 7.61684 26.6337 5.0582 24.7839 3.24431Z" fill="#8E24AA"/>
<path d="M14.3842 6.25865C14.3843 6.25865 14.3843 6.25865 14.3845 6.25865C15.9286 6.25865 17.3803 6.86004 18.4722 7.95193C19.5642 9.04394 20.1656 10.4959 20.1654 12.0402C20.1654 12.5694 20.5943 12.9984 21.1235 12.9984C21.1237 12.9984 21.1237 12.9984 21.1237 12.9984C21.6529 12.9984 22.0819 12.5695 22.0819 12.0403C22.0821 9.98404 21.2813 8.05082 19.8274 6.59684C18.3735 5.14287 16.4407 4.34229 14.3845 4.34229C14.3844 4.34229 14.384 4.34229 14.3839 4.34229C13.8547 4.34229 13.4258 4.77132 13.4258 5.30053C13.4259 5.82961 13.8549 6.25865 14.3842 6.25865Z" fill="#8E24AA"/>
<path d="M14.3839 9.62889C15.7137 9.62915 16.7957 10.7111 16.7959 12.0407C16.796 12.5699 17.2249 12.999 17.7542 12.9988C18.2836 12.9988 18.7125 12.5697 18.7124 12.0405C18.712 9.65432 16.7704 7.71279 14.3842 7.7124H14.384C13.8548 7.7124 13.4259 8.14131 13.4258 8.67052C13.4258 9.19973 13.8547 9.62889 14.3839 9.62889Z" fill="#8E24AA"/>
<path d="M10.0897 11.2707C9.65289 11.5694 9.54083 12.1657 9.83942 12.6025C10.138 13.0393 10.7344 13.1513 11.1713 12.8527C11.5148 12.6178 12.3195 12.0677 12.263 10.9679C12.2272 10.3096 11.6335 9.36977 11.1417 8.69721C10.4224 7.71316 9.8025 7.12045 9.30306 6.93672C8.83672 6.76309 8.34903 6.75939 7.85254 6.92599C6.82415 7.27249 6.07748 7.89867 5.69342 8.73682C5.31945 9.55273 5.32775 10.4904 5.71757 11.449C6.63825 13.7077 7.92715 15.6851 9.55706 17.3348C11.1982 18.956 13.1755 20.245 15.4351 21.1661C15.924 21.3651 16.4077 21.4646 16.8727 21.4646C17.3186 21.4646 17.7472 21.3731 18.1466 21.19C18.9848 20.8058 19.6108 20.0593 19.9577 19.0296C20.1238 18.5343 20.1201 18.0469 19.9479 17.5837C19.7629 17.0807 19.17 16.4609 18.1861 15.7416C17.5134 15.2498 16.5736 14.6561 15.9128 14.6202C14.8153 14.565 14.2656 15.3683 14.0308 15.7118C13.7321 16.1486 13.8439 16.7449 14.2807 17.0438C14.7177 17.3426 15.3138 17.2307 15.6127 16.7939C15.7169 16.6414 15.7764 16.5722 15.8106 16.5419C16.3485 16.7143 17.8823 17.8412 18.1584 18.273C18.1652 18.3006 18.1667 18.3426 18.1411 18.4192C18.0203 18.7781 17.7845 19.2479 17.3482 19.4479C16.9395 19.635 16.4751 19.5203 16.158 19.3913C14.1333 18.5659 12.3656 17.4153 10.9121 15.9796C9.46826 14.5181 8.31773 12.7505 7.49275 10.7265C7.36345 10.4086 7.24859 9.94395 7.43576 9.53561C7.63572 9.09929 8.10564 8.86344 8.46338 8.74282C8.53979 8.71727 8.58182 8.71868 8.61095 8.7257C9.04293 9.00232 10.1692 10.5353 10.3417 11.0733C10.3113 11.1069 10.2421 11.1665 10.0897 11.2707Z" fill="#8E24AA"/>
</svg>

<svg width="28" height="29" fill="none" xmlns="http://www.w3.org/2000/svg"><path d="M24.784 3.244C22.49.997 18.785-.092 13.767.006c-5.06.1-8.444.988-10.646 2.795C.991 4.55 0 7.106 0 10.85v3.82c0 4.419 2.368 9.277 6.893 10.012A.958.958 0 107.2 22.79c-3.432-.558-5.284-4.6-5.284-8.12v-3.82c0-5.367 1.99-8.732 11.888-8.927 4.488-.089 7.727.817 9.638 2.69 1.49 1.46 2.213 3.5 2.213 6.237v3.82c0 5.785-2.596 8.336-9.256 9.087h-4.722a.958.958 0 00-.677.28l-3.327 3.328a.958.958 0 001.355 1.355l3.046-3.046h4.38c.034 0 .07-.002.105-.006 3.81-.423 6.42-1.415 8.212-3.122 1.885-1.794 2.8-4.37 2.8-7.876v-3.82c0-3.232-.937-5.79-2.787-7.605z" fill="#8E24AA"/><path d="M14.384 6.259c1.545 0 2.996.601 4.088 1.693a5.743 5.743 0 011.693 4.088.958.958 0 001.916 0 7.64 7.64 0 00-2.254-5.443 7.646 7.646 0 00-5.443-2.255.958.958 0 100 1.917z" fill="#8E24AA"/><path d="M14.384 9.629a2.415 2.415 0 012.412 2.412.958.958 0 101.916 0 4.334 4.334 0 00-4.328-4.329.958.958 0 000 1.917zM10.09 11.27a.958.958 0 001.081 1.583c.344-.235 1.149-.785 1.092-1.885-.036-.658-.63-1.598-1.121-2.27-.72-.985-1.34-1.578-1.839-1.761a2.124 2.124 0 00-1.45-.011c-1.029.346-1.776.973-2.16 1.81-.374.817-.365 1.754.025 2.713.92 2.259 2.21 4.236 3.84 5.886 1.64 1.621 3.617 2.91 5.877 3.831.489.2.973.299 1.438.299.446 0 .874-.092 1.274-.275.838-.384 1.464-1.13 1.81-2.16a2.122 2.122 0 00-.01-1.446c-.184-.503-.777-1.123-1.76-1.842-.674-.492-1.613-1.086-2.274-1.122-1.098-.055-1.647.748-1.882 1.092a.958.958 0 001.582 1.082c.104-.153.163-.222.198-.252.538.172 2.071 1.3 2.347 1.731.007.028.009.07-.017.146-.12.36-.356.829-.793 1.029-.409.187-.873.072-1.19-.057-2.025-.825-3.792-1.976-5.246-3.411-1.444-1.462-2.594-3.23-3.42-5.254-.129-.317-.243-.782-.056-1.19.2-.437.67-.673 1.027-.793.077-.026.119-.024.148-.017.432.276 1.558 1.81 1.73 2.347-.03.034-.099.093-.251.198z" fill="#8E24AA"/></svg>
